icon-themes/breeze_svg/cmd/32/objectposition.svg

<svg viewBox="0 0 32 32" xmlns="http://www.w3.org/2000/svg"><path d="m4 5v1h24v-1zm5.0390625 3-1 1-4 4 .7070313.707031 3.7929687-3.7929685v18.0859375h1v-18.0859375l3.7929685 3.7929685.707031-.707031-4-4zm5.9609375 4v1h13v-1zm0 8v1h13v-1z" fill="#4d4d4d"/><path d="m18.999997 26c-.552285 0-1 .4477-1 1s.447715 1 1 1 1-.4477 1-1-.447715-1-1-1zm4 0c-.552285 0-1 .4477-1 1s.447715 1 1 1 1-.4477 1-1-.447715-1-1-1zm4 0c-.552285 0-1 .4477-1 1s.447715 1 1 1 1-.4477 1-1-.447715-1-1-1z" fill="#f47750"/></svg>

<svg xmlns="http://www.w3.org/2000/svg" viewBox="0 0 32 32">
 <path 
     style="fill:#4d4d4d" 
     d="M 4 5 L 4 6 L 28 6 L 28 5 L 4 5 z M 9.0390625 8 L 8.0390625 9 L 4.0390625 13 L 4.7460938 13.707031 L 8.5390625 9.9140625 L 8.5390625 28 L 9.5390625 28 L 9.5390625 9.9140625 L 13.332031 13.707031 L 14.039062 13 L 10.039062 9 L 9.0390625 8 z M 15 12 L 15 13 L 28 13 L 28 12 L 15 12 z M 15 20 L 15 21 L 28 21 L 28 20 L 15 20 z "
     />
 <path 
     style="fill:#f47750" 
     d="m 18.999997,26 c -0.552285,0 -1,0.4477 -1,1 0,0.5523 0.447715,1 1,1 0.552285,0 1,-0.4477 1,-1 0,-0.5523 -0.447715,-1 -1,-1 z m 4,0 c -0.552285,0 -1,0.4477 -1,1 0,0.5523 0.447715,1 1,1 0.552285,0 1,-0.4477 1,-1 0,-0.5523 -0.447715,-1 -1,-1 z m 4,0 c -0.552285,0 -1,0.4477 -1,1 0,0.5523 0.447715,1 1,1 0.552285,0 1,-0.4477 1,-1 0,-0.5523 -0.447715,-1 -1,-1 z"
     />
</svg>
